src/assets/icons/dotNet.svg

<?xml version="1.0" encoding="UTF-8" standalone="no"?>
<svg
   width="100"
   height="100"
   viewBox="0 0 3 3"
   version="1.1"
   id="svg6"
   xmlns="http://www.w3.org/2000/svg"
   xmlns:svg="http://www.w3.org/2000/svg">
  <defs
     id="defs10" />
  <rect
     id="rect224"
     width="2.7"
     height="2.7"
     x="0.15000001"
     y="0.15000001"
     fill="none" />
  <path
     d="m 0.34536496,1.7897266 c -9.002e-5,0.026018 -0.011074,0.049426 -0.0286295,0.065991 h -9.003e-5 c -0.0180061,0.016926 -0.0423141,0.02728 -0.0690531,0.02728 -0.0267389,0 -0.0511371,-0.010443 -0.069233,-0.02737 l 9.005e-5,9.01e-5 c -0.0175558,-0.016565 -0.0285394,-0.039973 -0.0285394,-0.065902 0,-0.025928 0.0109841,-0.049426 0.0286295,-0.065901 h 9.004e-5 c 0.018006,-0.016925 0.0423141,-0.02728 0.0690531,-0.02728 0.0267389,0 0.051047,0.010361 0.0691431,0.02737 l -9.003e-5,-9.01e-5 c 0.0175558,0.016565 0.0285396,0.039973 0.0286295,0.065991 v 0 z M 1.3245315,1.8676925 H 1.149243 L 0.68774919,1.13953 C 0.67712619,1.123145 0.66731229,1.104239 0.65947959,1.084341 l -8.1027e-4,-0.00216 h -0.004051 c 0.003692,0.032861 0.005763,0.070853 0.005763,0.1093869 0,0.00936 -9.003e-5,0.018726 -3.6012e-4,0.028089 v -0.00135 0.6493864 H 0.50507864 V 0.8770924 H 0.6917109 l 0.4460987,0.7110571 c 0.018816,0.02935 0.03097,0.049696 0.036371,0.06077 h 0.0027 c -0.00449,-0.033672 -0.00703,-0.072565 -0.00703,-0.1120868 0,-0.00747 9e-5,-0.014856 2.7e-4,-0.022328 v 0.00108 -0.6385829 h 0.154402 z m 0.7546316,0 H 1.5367322 V 0.8770924 H 2.0576459 V 1.0166387 H 1.6970756 V 1.2972623 H 2.0292864 V 1.4360879 H 1.6970756 V 1.7290464 H 2.0791631 Z M 2.8500901,1.016639 H 2.5724375 V 1.8677827 H 2.4120941 V 1.016639 H 2.1350716 V 0.8770924 h 0.7149285 z"
     id="path4" />
  <path
     d="m 2.8343275,2.4906444 c 0.00967,-0.017362 0.015673,-0.03692 0.015673,-0.054488 V 1.8264271 c 0,-0.017566 -0.006,-0.037122 -0.015673,-0.054483 L 2.2339672,2.1312968 Z"
     fill="#7f3a86"
     id="path2" />
  <path
     d="M 2.2873311,2.8368242 2.7966673,2.5319596 c 0.014672,-0.00878 0.028009,-0.023948 0.037675,-0.04131 L 2.2339826,2.1312968 1.6336254,2.4906495 c 0.00967,0.017362 0.023007,0.032532 0.037675,0.04131 L 2.180634,2.836824 c 0.029338,0.017568 0.077358,0.017568 0.1066971,2e-7 z"
     fill="#662579"
     id="path4-9" />
  <path
     d="m 2.8343275,1.7719421 c -0.00967,-0.017365 -0.023009,-0.03253 -0.037675,-0.041313 L 2.2873157,1.4257653 c -0.029338,-0.017565 -0.077358,-0.017565 -0.1066969,0 l -0.5093353,0.304864 c -0.029344,0.017561 -0.053349,0.060673 -0.053349,0.095798 v 0.6097343 c 0,0.017562 0.006,0.037126 0.015675,0.054488 l 0.600358,-0.3593527 z"
     fill="#9a5196"
     id="path6" />
  <path
     d="m 2.2359437,2.5419856 c -0.2275422,0 -0.4126653,-0.184235 -0.4126653,-0.4106888 0,-0.2264538 0.1851231,-0.4106888 0.4126653,-0.4106888 0.1441158,0 0.2786984,0.075756 0.3532179,0.1982497 L 2.4124372,2.0248514 c -0.037337,-0.061116 -0.1045511,-0.098899 -0.1764935,-0.098899 -0.1137763,0 -0.2063301,0.092118 -0.2063301,0.2053444 0,0.1132269 0.092554,0.2053444 0.2063301,0.2053444 0.071753,0 0.1387922,-0.037573 0.1761957,-0.098401 l 0.1770993,0.1053776 c -0.074504,0.1225649 -0.209133,0.1983678 -0.353295,0.1983678 z"
     fill="#ffffff"
     id="path8" />
  <path
     d="m 2.6959973,1.9772885 v 0.051203 H 2.5933148 v -0.051203 h -0.051326 v 0.051203 h -0.051341 v 0.05147 h 0.051341 v 0.1024052 h -0.051341 v 0.051603 h 0.051341 v 0.051335 h 0.051326 l 5.1e-6,-0.051336 h 0.1026774 v 0.051336 h 0.051325 v -0.051336 h 0.051342 V 2.1826333 H 2.7473228 V 2.0799608 h 0.051341 v -0.05147 h -0.051341 v -0.051203 z m 0,0.2053444 V 2.0799608 H 2.5933148 V 2.182366 Z"
     fill="#ffffff"
     id="path10"
     fill-rule="evenodd" />
</svg>

<?xml version="1.0" encoding="UTF-8"?>
<svg width="100" height="100" version="1.1" viewBox="0 0 3 3" xmlns="http://www.w3.org/2000/svg">
 <rect x=".15" y=".15" width="2.7" height="2.7" fill="none"/>
 <path d="m0.34536 1.7897c-9.002e-5 0.026018-0.011074 0.049426-0.02863 0.065991h-9.003e-5c-0.018006 0.016926-0.042314 0.02728-0.069053 0.02728-0.026739 0-0.051137-0.010443-0.069233-0.02737l9.005e-5 9.01e-5c-0.017556-0.016565-0.028539-0.039973-0.028539-0.065902 0-0.025928 0.010984-0.049426 0.02863-0.065901h9.004e-5c0.018006-0.016925 0.042314-0.02728 0.069053-0.02728 0.026739 0 0.051047 0.010361 0.069143 0.02737l-9.003e-5 -9.01e-5c0.017556 0.016565 0.02854 0.039973 0.02863 0.065991zm0.97917 0.077966h-0.17529l-0.46149-0.72816c-0.010623-0.016385-0.020437-0.035291-0.02827-0.055189l-8.1027e-4 -0.00216h-0.004051c0.003692 0.032861 0.005763 0.070853 0.005763 0.10939 0 0.00936-9.003e-5 0.018726-3.6012e-4 0.028089v-0.00135 0.64939h-0.15494v-0.9906h0.18663l0.4461 0.71106c0.018816 0.02935 0.03097 0.049696 0.036371 0.06077h0.0027c-0.00449-0.033672-0.00703-0.072565-0.00703-0.11209 0-0.00747 9e-5 -0.014856 2.7e-4 -0.022328v0.00108-0.63858h0.1544zm0.75463 0h-0.54243v-0.9906h0.52091v0.13955h-0.36057v0.28062h0.33221v0.13883h-0.33221v0.29296h0.38209zm0.77093-0.85105h-0.27765v0.85114h-0.16034v-0.85114h-0.27702v-0.13955h0.71493z" fill="white"/>
 <path d="m2.8343 2.4906c0.00967-0.017362 0.015673-0.03692 0.015673-0.054488v-0.60973c0-0.017566-6e-3 -0.037122-0.015673-0.054483l-0.60036 0.35935z" fill="#7f3a86"/>
 <path d="m2.2873 2.8368 0.50934-0.30486c0.014672-0.00878 0.028009-0.023948 0.037675-0.04131l-0.60036-0.35935-0.60036 0.35935c0.00967 0.017362 0.023007 0.032532 0.037675 0.04131l0.50933 0.30486c0.029338 0.017568 0.077358 0.017568 0.1067 2e-7z" fill="#662579"/>
 <path d="m2.8343 1.7719c-0.00967-0.017365-0.023009-0.03253-0.037675-0.041313l-0.50934-0.30486c-0.029338-0.017565-0.077358-0.017565-0.1067 0l-0.50934 0.30486c-0.029344 0.017561-0.053349 0.060673-0.053349 0.095798v0.60973c0 0.017562 6e-3 0.037126 0.015675 0.054488l0.60036-0.35935z" fill="#9a5196"/>
 <path d="m2.2359 2.542c-0.22754 0-0.41267-0.18424-0.41267-0.41069s0.18512-0.41069 0.41267-0.41069c0.14412 0 0.2787 0.075756 0.35322 0.19825l-0.17672 0.10599c-0.037337-0.061116-0.10455-0.098899-0.17649-0.098899-0.11378 0-0.20633 0.092118-0.20633 0.20534 0 0.11323 0.092554 0.20534 0.20633 0.20534 0.071753 0 0.13879-0.037573 0.1762-0.098401l0.1771 0.10538c-0.074504 0.12256-0.20913 0.19837-0.3533 0.19837z" fill="#ffffff"/>
 <path d="m2.696 1.9773v0.051203h-0.10268v-0.051203h-0.051326v0.051203h-0.051341v0.05147h0.051341v0.10241h-0.051341v0.051603h0.051341v0.051335h0.051326l5.1e-6 -0.051336h0.10268v0.051336h0.051325v-0.051336h0.051342v-0.051335h-0.051342v-0.10267h0.051341v-0.05147h-0.051341v-0.051203zm0 0.20534v-0.10267h-0.10268v0.10241z" fill="#ffffff" fill-rule="evenodd"/>
</svg>
